X:44
T:Northern Lights/ Waltz set
M:3/4
L:1/4
C:Trad.
R:Waltz
K:D
| "A7"F/G/|: "D" A2 d | "D/A" f2 e| "G" d B2|"G/B" d2 B| "D" A2 d| "E" e2 f| "A" a3| "A/C#"a2 A|!
"D" A2 d| "F#" f2 e| "G" d B2| "E/G# " d2 e| "D/A" f a2| "A" A2 c| "D" d3|1 "G/A" d2  F/G/:||2 "D7" d2 e|!
|: "G" d B2|"G/B" B2 d| "D" d A2|"D/A" A2 F|"D" A2 d| "E" e2 f| "A" a3|!
"A/G" a2 b| "D/F#" a f2 | "D7" a2 f| "G" d B2| "E/G#" d2 e| "D/A" f a2|"A" A2 c|1"D" d3 | "D7/E" d2  "/F#" e :|2 "D" d A F| D2||
